X:7
T:Lucy Farr's
R:barndance
Z:id:hn-barndance-7
M:C|
L:1/8
K:G
(3DEF | G4 G4 | GABG E2D2 | B4 B4 | BcdB A3A |
BcdB G3G | GABG E2D2 | DEGA BddB | A2G2 G2 :|
|: A2 | BcdB G2G2 | GABG E2D2 | DEGA BddB | B2A2 A3A |
BcdB G2G2 | GABG E2D2 | DEGA BddB | A2G2 G2 :|

